X: 7313
T: Cleveland Park
R: jig
M: 6/8
K: Aminor
EAB cBA|FAB cBA|^FAB cBA|BdB GBd|
EAB cBA|FAB cBA|BdB GBd|dcB A3:|
Ace aec|def ecA|EAc EAc|cBA ^G3|
Ace aec|def ecA|EAc EAc|BA^G A3|
Ace aec|def ecA|EAc EAc|cBA ^G3|
EAB cBA|FAB cBA|BdB GBd|dcB A3|

